X:3352
T:Kucheryava Kateryna
O:england
S:A. Humenyuk
Q:72
M:2/4
L:1/16
K:G
(GA) (Bc) d2 d2 | (ed) e2 d2 g2 | \
(cB) c2 (BA) B2 | (AG) G2 G2 G2 :|
|: B2 B2 (AG) A2 | (BA) B2 c2 c2 | \
(BA) B2 (AG) A2 |1 G2 g2 (gf) g2 :|2 G2 G2 G2 G2 |]


